packages/dnb-eufemia/assets/icons/file_csv_medium.svg

<svg width="24" height="24" viewBox="0 0 24 24" fill="none" xmlns="http://www.w3.org/2000/svg">
<path d="M13 23H2.5C1.94772 23 1.5 22.5523 1.5 22V2C1.5 1.44772 1.94772 1 2.5 1H12.5362C12.8304 1 13.1096 1.12951 13.2996 1.35406L18.2634 7.22036C18.4162 7.40092 18.5 7.62979 18.5 7.86631V9" stroke="black" stroke-width="1.5" stroke-linecap="round" stroke-linejoin="round"/>
<path d="M7.56171 15.4999C7.56171 14.1099 8.04171 13.1999 8.79171 13.1999C9.43171 13.1999 9.77171 13.5799 9.87171 14.4099L11.2617 13.9199C11.0517 12.6399 10.1717 11.8999 8.86171 11.8999C7.10171 11.8999 6.03171 13.2599 6.03171 15.4999C6.03171 17.7799 7.07171 19.0999 8.86171 19.0999C10.0917 19.0999 10.8717 18.5399 11.2917 17.3499L10.0417 16.6599C9.79171 17.5299 9.50171 17.7999 8.81171 17.7999C8.01171 17.7999 7.56171 16.9699 7.56171 15.4999Z" fill="black"/>
<path d="M14.8478 19.0999C16.3878 19.0999 17.3578 18.2699 17.3578 16.9499C17.3578 15.9099 16.7178 15.2199 15.4078 14.8699L14.7378 14.6899C14.1378 14.5299 13.9078 14.3099 13.9078 13.8899C13.9078 13.4399 14.2978 13.1399 14.8878 13.1399C15.3978 13.1399 15.8078 13.4699 15.9078 13.9799L17.1878 13.3799C17.0078 12.4999 16.0678 11.8999 14.8678 11.8999C13.4278 11.8999 12.4078 12.7699 12.4078 13.9799C12.4078 15.0299 13.0178 15.6999 14.2778 16.0399L14.9478 16.2199C15.6178 16.3999 15.8578 16.6399 15.8578 17.0899C15.8578 17.5699 15.4778 17.8599 14.8478 17.8599C14.2078 17.8599 13.8678 17.5699 13.5278 16.7099L12.2778 17.4399C12.6478 18.5499 13.5078 19.0999 14.8478 19.0999Z" fill="black"/>
<path d="M22.3339 11.9999L21.0339 17.1499L19.7239 11.9999H18.1539L20.2939 18.9999H21.7139L23.8539 11.9999H22.3339Z" fill="black"/>
</svg>

<svg width="24" height="24" viewBox="0 0 24 24" fill="none" xmlns="http://www.w3.org/2000/svg"><path d="M13 23H2.5a1 1 0 0 1-1-1V2a1 1 0 0 1 1-1h10.036a1 1 0 0 1 .764.354l4.963 5.866a1 1 0 0 1 .237.646V9" stroke="#000" stroke-width="1.5" stroke-linecap="round" stroke-linejoin="round"/><path d="M7.562 15.5c0-1.39.48-2.3 1.23-2.3.64 0 .98.38 1.08 1.21l1.39-.49c-.21-1.28-1.09-2.02-2.4-2.02-1.76 0-2.83 1.36-2.83 3.6 0 2.28 1.04 3.6 2.83 3.6 1.23 0 2.01-.56 2.43-1.75l-1.25-.69c-.25.87-.54 1.14-1.23 1.14-.8 0-1.25-.83-1.25-2.3Zm7.286 3.6c1.54 0 2.51-.83 2.51-2.15 0-1.04-.64-1.73-1.95-2.08l-.67-.18c-.6-.16-.83-.38-.83-.8 0-.45.39-.75.98-.75.51 0 .92.33 1.02.84l1.28-.6c-.18-.88-1.12-1.48-2.32-1.48-1.44 0-2.46.87-2.46 2.08 0 1.05.61 1.72 1.87 2.06l.67.18c.67.18.91.42.91.87 0 .48-.38.77-1.01.77-.64 0-.98-.29-1.32-1.15l-1.25.73c.37 1.11 1.23 1.66 2.57 1.66Zm7.486-7.1-1.3 5.15-1.31-5.15h-1.57l2.14 7h1.42l2.14-7h-1.52Z" fill="#000"/></svg>
